X:11314
%5545
T:Friendship Waltz
C:Andy De Jarlis
M:3/4
L:1/8
K:Cmaj
G,/2F,/2|E,2 F,2 G,2|E2 _E2 =E2|G3 A GE|F3 E DB,|!
G,2 B,2 D2|F2 A3 B|A3 G AG|E4 G,3/2F,/2|!
E,2 F,2 G,2|E2 _E
